X:1
T:Count Me
T:Count Me
T:Haldor Lillenas
T:William Charles Poole, 1916
T:Public Domain Courtesy of the Cyber Hymnal™
T:Public Domain Courtesy of the Cyber Hymnal™
C:Haldor Lillenas
Z:Public Domain
Z:Courtesy of the Cyber Hymnal™
%%score ( 1 2 ) ( 3 4 )
L:1/8
Q:1/4=110
M:4/4
K:Db
V:1 treble 
V:2 treble 
V:3 bass 
V:4 bass 
V:1
 D[DE] | [DF]2 [DF]2 [DF]2 D2 | [DA]2 [CA]2 [DA]2 [Fd]2 | [Gc]6 [GB]2 | [FA]6 | D[DE] | %6
w: 1.~When you|count the ones who|love the Lord, Count|me, count|me;|When you|
w: 2.~When you|count up those who’re|saved by grace, Count|me, count|me;|Who have|
w: 3.~When you|count up those who|do the right, Count|me, count|me;|Who are|
w: 4.~When you|count up those who|for- ward press, Count|me, count|me;|Who shall|
 [DF]2 [DF]2 [DF]2 D2 | [DA]2 [CA]2 [DA]2 [=DB]2 | c6 [DB]2 | A6 ||"^Refrain" [GA]2 | %11
w: count up those who|trust His Word, Count|me, count|me.||
w: found in Christ a|hid- ing place, Count|me, count|me.|Count|
w: walk- ing in the|Gos- pel light, Count|me, count|me.||
w: gain the crown of|right- eous- ness, Count|me, count|me.||
 [Fd]2 [Fd][Fd] [Gd][Gd][Ac][GB] | [FA]2 [FA]2 [DF]2 [DA]2 | [CG]2 [CG][CG] [CE][CE][DF][CG] | %14
w: |||
w: me with the child- ren of the|heav’n- ly King; Count|me with the serv- ants who would|
w: |||
w: |||
 [CB]2 [CA]2 [DF]2 [FA]2 | [Fd]2 [Fd][Fd] [Fd][Fd][Fc][Fd] | [Ge]2 [Gd]2 !fermata![GB]2 [=EB]2 | %17
w: |||
w: serv- ice bring; Count|me with the ran- somed who His|prais- es sing; Count|
w: |||
w: |||
 A6 [Fe]2 | d4- [Fd]2 |] %19
w: ||
w: me, count|me. *|
w: ||
w: ||
V:2
 D x | x6 D2 | x8 | x8 | x6 | D x | x6 D2 | x8 | (E2 E2 E2) x2 | (C2 D2 E2) || x2 | x8 | x8 | x8 | %14
 x8 | x8 | x8 | (F2 E2 F2) x2 | F2 G2 x2 |] %19
V:3
 [D,F,][D,G,] | [D,A,]2 [D,A,]2 [D,A,]2 [D,F,]2 | [D,F,]2 [E,G,]2 [F,A,]2 z2 | %3
w: ~ ~|~ ~ ~ ~|~ ~ ~|
 z2 ([E,A,]2 [A,,A,]2) z2 | z2 ([D,A,]2 [D,D]2) | [D,F,][D,G,] | [D,A,]2 [D,A,]2 [D,A,]2 [D,F,]2 | %7
w: ~ *|~ *|~ ~|~ ~ ~ ~|
 [D,F,]2 [E,G,]2 [F,A,]2 [_F,A,]2 | ([E,A,]2 [E,A,]2) ([E,A,]2 [E,=G,]2) | %9
w: ~ ~ ~ ~|Count * me, *|
 A,2 !fermata![A,,G,]2 x2 || A,2 | [D,A,]2 [D,A,][D,A,] [G,B,][G,B,][G,C][G,D] | %12
w: count me.||~ ~ ~ ~ ~ ~ ~|
 [D,D]2 [D,D]2 [D,A,]2 [D,F,]2 | [E,A,]2 [E,A,][E,A,] [G,A,][G,A,][F,A,][E,A,] | %14
w: ~ ~ ~ ~|~ ~ ~ ~ ~ ~ ~|
 [A,,A,]2 [A,,A,]2 [D,A,]2 [D,D]2 | [D,A,]2 [D,A,][D,A,] [D,_C][D,C][D,A,][D,C] | %16
w: ~ ~ ~ ~|~ ~ ~ ~ ~ ~ ~|
 [G,B,]2 [G,B,]2 !fermata![G,D]2 [=G,D]2 | [A,D]2 [A,D]2 ([A,C]2 [A,,C]2) | D2 B,2 [D,A,]2 |] %19
w: ~ ~ ~ ~|~ ~ Count *|me, count me.|
V:4
 x2 | x8 | x8 | x8 | x6 | x2 | x8 | x8 | x8 | A,,4 F,2 || A,2 | x8 | x8 | x8 | x8 | x8 | x8 | x8 | %18
 D,4- x2 |] %19

